build/images/icons/github.svg

<svg id="Layer_1" xmlns="http://www.w3.org/2000/svg" width="26" height="22"><path fill="#FFF" d="M25.047 17.422C22.984 21.594 17.313 22 13.25 22 9.125 22 3.109 21.641.969 17.422.172 15.844 0 13.984 0 12.25c0-2.281.625-4.438 2.125-6.188a8.585 8.585 0 0 1-.422-2.656c0-1.172.266-2.343.797-3.406 2.469 0 4.047 1.078 5.922 2.547A20.895 20.895 0 0 1 13.25 2c1.469 0 2.953.156 4.375.5C19.484 1.047 21.063 0 23.5 0a7.629 7.629 0 0 1 .797 3.406c0 .891-.141 1.781-.422 2.625C25.375 7.797 26 9.969 26 12.25c0 1.734-.172 3.578-.953 5.172zM18.5 10.5c-1.031 0-2.016.188-3.047.328-.812.125-1.625.172-2.453.172s-1.641-.047-2.453-.172c-1.016-.14-2.016-.328-3.047-.328-2.547 0-4 2.109-4 4.5 0 4.781 4.375 5.516 8.188 5.516h2.625c3.813 0 8.188-.734 8.188-5.516-.001-2.391-1.454-4.5-4.001-4.5zM8 18c-1.406 0-2-1.859-2-3s.594-3 2-3 2 1.859 2 3-.594 3-2 3zm10 0c-1.406 0-2-1.859-2-3s.594-3 2-3 2 1.859 2 3-.594 3-2 3z"/></svg>

<?xml version="1.0" encoding="utf-8"?>
<!-- Generator: Adobe Illustrator 16.0.0, SVG Export Plug-In . SVG Version: 6.00 Build 0)  -->
<!DOCTYPE svg PUBLIC "-//W3C//DTD SVG 1.1//EN" "http://www.w3.org/Graphics/SVG/1.1/DTD/svg11.dtd">
<svg version="1.1" id="Layer_1" xmlns="http://www.w3.org/2000/svg" xmlns:xlink="http://www.w3.org/1999/xlink" x="0px" y="0px"
	 width="26px" height="22px" viewBox="0 0 26 22" enable-background="new 0 0 26 22" xml:space="preserve">
<g>
	<path fill="#FFFFFF" d="M25.047,17.422C22.984,21.594,17.313,22,13.25,22c-4.125,0-10.141-0.359-12.281-4.578
		C0.172,15.844,0,13.984,0,12.25c0-2.281,0.625-4.438,2.125-6.188C1.844,5.203,1.703,4.297,1.703,3.406
		C1.703,2.234,1.969,1.063,2.5,0c2.469,0,4.047,1.078,5.922,2.547C10,2.172,11.625,2,13.25,2c1.469,0,2.953,0.156,4.375,0.5
		C19.484,1.047,21.063,0,23.5,0c0.531,1.063,0.797,2.234,0.797,3.406c0,0.891-0.141,1.781-0.422,2.625
		C25.375,7.797,26,9.969,26,12.25C26,13.984,25.828,15.828,25.047,17.422z M18.5,10.5c-1.031,0-2.016,0.188-3.047,0.328
		C14.641,10.953,13.828,11,13,11s-1.641-0.047-2.453-0.172C9.531,10.688,8.531,10.5,7.5,10.5c-2.547,0-4,2.109-4,4.5
		c0,4.781,4.375,5.516,8.188,5.516h2.625c3.813,0,8.188-0.734,8.188-5.516C22.5,12.609,21.047,10.5,18.5,10.5z M8,18
		c-1.406,0-2-1.859-2-3s0.594-3,2-3s2,1.859,2,3S9.406,18,8,18z M18,18c-1.406,0-2-1.859-2-3s0.594-3,2-3s2,1.859,2,3
		S19.406,18,18,18z"/>
</g>
</svg>
